src/pos-icons/domain-remove.svg

<svg height="24" viewBox="0 0 24 24" width="24" xmlns="http://www.w3.org/2000/svg"><path d="m12 7v-4h-10v18h11.35a5.8 5.8 0 0 1 -.35-2h-1v-2h1.35a5 5 0 0 1 .65-1.31v-.69h-2v-2h2v-2h-2v-2h8v4.09a5.58 5.58 0 0 1 2 .72v-6.81m-16 12h-2v-2h2m0-2h-2v-2h2m0-2h-2v-2h2m0-2h-2v-2h2m4 14h-2v-2h2m0-2h-2v-2h2m0-2h-2v-2h2m0-2h-2v-2h2m6 8h2v-2h-2m0 0v2h2v-2m-2 0v2h2v-2m4.54 5.88-2.13 2.12 2.13 2.12-1.42 1.42-2.12-2.13-2.12 2.13-1.42-1.42 2.13-2.12-2.13-2.12 1.42-1.42 2.12 2.13 2.12-2.13z"/></svg>

<?xml version="1.0" encoding="UTF-8"?><!DOCTYPE svg PUBLIC "-//W3C//DTD SVG 1.1//EN" "http://www.w3.org/Graphics/SVG/1.1/DTD/svg11.dtd"><svg xmlns="http://www.w3.org/2000/svg" xmlns:xlink="http://www.w3.org/1999/xlink" version="1.1" id="mdi-domain-remove" width="24" height="24" viewBox="0 0 24 24"><path d="M12 7V3H2V21H13.35A5.8 5.8 0 0 1 13 19H12V17H13.35A5 5 0 0 1 14 15.69V15H12V13H14V11H12V9H20V13.09A5.58 5.58 0 0 1 22 13.81V7M6 19H4V17H6M6 15H4V13H6M6 11H4V9H6M6 7H4V5H6M10 19H8V17H10M10 15H8V13H10M10 11H8V9H10M10 7H8V5H10M16 13H18V11H16M16 11V13H18V11M16 11V13H18V11M22.54 16.88L20.41 19L22.54 21.12L21.12 22.54L19 20.41L16.88 22.54L15.46 21.12L17.59 19L15.46 16.88L16.88 15.46L19 17.59L21.12 15.46Z" /></svg>
